svg/24/rocket.svg

<svg width="24" height="24" viewBox="0 0 24 24" fill="currentColor" xmlns="http://www.w3.org/2000/svg"><path d="M9.12644 7.4266C11.9919 3.9881 16.2365 2 20.7124 2C21.4235 2 21.9999 2.5764 21.9999 3.28744C21.9999 7.76335 20.0118 12.008 16.5733 14.8734L15.9999 15.3513V19.6181C15.9999 20.098 15.7703 20.5489 15.3821 20.8312L13.6845 22.0658C12.9166 22.6243 11.8296 22.3378 11.4367 21.4734L9.86172 18.0085C9.73235 17.7239 9.7931 17.3889 10.0142 17.1678C10.3844 16.7975 11.0106 16.9111 11.2273 17.3878L12.8022 20.8527L14.4999 19.6181V15C14.4999 14.7774 14.5988 14.5663 14.7697 14.4238L15.613 13.7211C18.6546 11.1865 20.436 7.45337 20.4982 3.50169C16.5465 3.56391 12.8134 5.34528 10.2788 8.38687L9.57605 9.23014C9.43355 9.40113 9.22247 9.5 8.99988 9.5H4.3818L3.14715 11.1976L6.61225 12.7727C7.08897 12.9894 7.20251 13.6155 6.83223 13.9858C6.61116 14.2069 6.27616 14.2676 5.99155 14.1382L2.52645 12.5632C1.66206 12.1703 1.37558 11.0833 1.93405 10.3154L3.1687 8.61774C3.45096 8.22963 3.9019 8 4.3818 8H8.6486L9.12644 7.4266Z"/><path d="M11.7803 13.2803C12.0732 12.9874 12.0732 12.5126 11.7803 12.2197C11.4874 11.9268 11.0126 11.9268 10.7197 12.2197L5.21967 17.7197C4.92678 18.0126 4.92678 18.4874 5.21967 18.7803C5.51256 19.0732 5.98744 19.0732 6.28033 18.7803L11.7803 13.2803Z"/></svg>

<svg xmlns="http://www.w3.org/2000/svg" width="24" height="24" fill="currentColor" viewBox="0 0 24 24">
  <path d="M9.126 7.427A15.082 15.082 0 0 1 20.712 2C21.424 2 22 2.576 22 3.287a15.08 15.08 0 0 1-5.427 11.586l-.573.478v4.267c0 .48-.23.93-.618 1.213l-1.697 1.235a1.5 1.5 0 0 1-2.248-.593L9.862 18.01a.75.75 0 1 1 1.365-.621l1.575 3.465 1.698-1.235V15a.75.75 0 0 1 .27-.576l.843-.703a13.581 13.581 0 0 0 4.885-10.22 13.581 13.581 0 0 0-10.22 4.886l-.702.843A.75.75 0 0 1 9 9.5H4.382l-1.235 1.698 3.465 1.575a.75.75 0 1 1-.62 1.365l-3.466-1.575a1.5 1.5 0 0 1-.592-2.248L3.17 8.618A1.5 1.5 0 0 1 4.382 8h4.267l.477-.573Z"/>
  <path d="M11.78 13.28a.75.75 0 1 0-1.06-1.06l-5.5 5.5a.75.75 0 1 0 1.06 1.06l5.5-5.5Z"/>
</svg>
